packages/form-js-viewer/src/render/components/icons/Image.svg

<svg width="54" height="54" viewBox="0 0 54 54" fill="none" xmlns="http://www.w3.org/2000/svg" fill="currentcolor">
<path fill-rule="evenodd" clip-rule="evenodd" d="M34.6364 21.9091C34.6364 24.0178 32.9269 25.7273 30.8182 25.7273C28.7095 25.7273 27 24.0178 27 21.9091C27 19.8004 28.7095 18.0909 30.8182 18.0909C32.9269 18.0909 34.6364 19.8004 34.6364 21.9091ZM32.6364 21.9091C32.6364 22.9132 31.8223 23.7273 30.8182 23.7273C29.814 23.7273 29 22.9132 29 21.9091C29 20.9049 29.814 20.0909 30.8182 20.0909C31.8223 20.0909 32.6364 20.9049 32.6364 21.9091Z"/>
<path fill-rule="evenodd" clip-rule="evenodd" d="M15 13C13.8954 13 13 13.8954 13 15V39C13 40.1046 13.8954 41 15 41H39C40.1046 41 41 40.1046 41 39V15C41 13.8954 40.1046 13 39 13H15ZM39 15H15V27.4507L19.7094 22.7413C20.0683 22.3824 20.5545 22.1818 21.0606 22.1818C21.5667 22.1818 22.0529 22.3824 22.4118 22.7413L29.1069 29.4365L31.7633 27.6664C32.5209 27.1609 33.5304 27.2606 34.1744 27.9046L39 32.7302V15ZM15 39V30.2464C15.0597 30.2081 15.1162 30.1629 15.1684 30.1107L21.0606 24.2185L27.7447 30.9027C28.3886 31.5466 29.3983 31.646 30.1558 31.1409L32.8122 29.3708L38.8315 35.3902C38.8837 35.4424 38.9403 35.4876 39 35.5259V39H15Z" />
</svg>

<svg xmlns="http://www.w3.org/2000/svg" width="54" height="54" fill="currentcolor"><path fill-rule="evenodd" d="M34.636 21.91A3.818 3.818 0 1 1 27 21.908a3.818 3.818 0 0 1 7.636 0Zm-2 0A1.818 1.818 0 1 1 29 21.908a1.818 1.818 0 0 1 3.636 0Z" clip-rule="evenodd"/><path fill-rule="evenodd" d="M15 13a2 2 0 0 0-2 2v24a2 2 0 0 0 2 2h24a2 2 0 0 0 2-2V15a2 2 0 0 0-2-2H15Zm24 2H15v12.45l4.71-4.709a1.91 1.91 0 0 1 2.702 0l6.695 6.695 2.656-1.77a1.91 1.91 0 0 1 2.411.239L39 32.73V15ZM15 39v-8.754c.06-.038.116-.083.168-.135l5.893-5.893 6.684 6.685a1.911 1.911 0 0 0 2.41.238l2.657-1.77 6.02 6.02c.052.051.108.097.168.135V39H15Z" clip-rule="evenodd"/></svg>
